imagenes/linkedin.svg

<svg width="92" height="92" viewBox="0 0 92 92" fill="none" xmlns="http://www.w3.org/2000/svg">
<path d="M81.0476 0H10.9524C4.90667 0 0 4.90667 0 10.9524V81.0476C0 87.0933 4.90667 92 10.9524 92H81.0476C87.0933 92 92 87.0933 92 81.0476V10.9524C92 4.90667 87.0933 0 81.0476 0ZM28.4762 35.0476V76.6667H15.3333V35.0476H28.4762ZM15.3333 22.9343C15.3333 19.8676 17.9619 17.5238 21.9048 17.5238C25.8476 17.5238 28.3229 19.8676 28.4762 22.9343C28.4762 26.001 26.0229 28.4762 21.9048 28.4762C17.9619 28.4762 15.3333 26.001 15.3333 22.9343ZM76.6667 76.6667H63.5238C63.5238 76.6667 63.5238 56.3829 63.5238 54.7619C63.5238 50.381 61.3333 46 55.8571 45.9124H55.6819C50.381 45.9124 48.1905 50.4248 48.1905 54.7619C48.1905 56.7552 48.1905 76.6667 48.1905 76.6667H35.0476V35.0476H48.1905V40.6552C48.1905 40.6552 52.4181 35.0476 60.9171 35.0476C69.6133 35.0476 76.6667 41.0276 76.6667 53.141V76.6667Z" fill="#356BD3"/>
</svg>

<svg width="92" height="92" fill="none" xmlns="http://www.w3.org/2000/svg"><path d="M81.048 0H10.952C4.907 0 0 4.907 0 10.952v70.096C0 87.093 4.907 92 10.952 92h70.096C87.093 92 92 87.093 92 81.048V10.952C92 4.907 87.093 0 81.048 0ZM28.476 35.048v41.619H15.333v-41.62h13.143ZM15.333 22.934c0-3.066 2.629-5.41 6.572-5.41s6.418 2.344 6.571 5.41c0 3.067-2.453 5.542-6.571 5.542-3.943 0-6.572-2.475-6.572-5.542Zm61.334 53.733H63.524V54.762c0-4.381-2.19-8.762-7.667-8.85h-.175c-5.301 0-7.492 4.513-7.492 8.85v21.905H35.049v-41.62H48.19v5.608s4.228-5.607 12.727-5.607c8.696 0 15.75 5.98 15.75 18.093v23.526Z" fill="#356BD3"/></svg>
